ukui-icon-theme/64x64/devices/camera.svg

<?xml version="1.0" encoding="iso-8859-1"?>
<!-- Generator: Adobe Illustrator 21.0.0, SVG Export Plug-In . SVG Version: 6.00 Build 0)  -->
<svg version="1.1" id="&#x56FE;&#x5C42;_1" xmlns="http://www.w3.org/2000/svg" xmlns:xlink="http://www.w3.org/1999/xlink" x="0px"
	 y="0px" viewBox="0 0 64 64" style="enable-background:new 0 0 64 64;" xml:space="preserve">
<g>
	
		<image style="overflow:visible;enable-background:new    ;" width="11" height="9" xlink:href="data:image/png;base64,iVBORw0KGgoAAAANSUhEUgAAAAsAAAAJCAIAAABrBkF6AAAACXBIWXMAAAsSAAALEgHS3X78AAAA
K0lEQVQYV2NgoBpgBAMmGIBw0VUwMzOzwACQjUUFUIIVBoBssswg4A6KAACZmQEANNLrLgAAAABJ
RU5ErkJggg==" transform="matrix(1 0 0 1 37 15)">
	</image>
</g>
<title>画板 21</title>
<g>
	<g id="&#x5F00;&#x59CB;&#x83DC;&#x5355;&#x5E94;&#x7528;&#x56FE;&#x6807;">
		<g id="&#x7167;&#x76F8;&#x673A;">
			<g id="_64">
				<g style="opacity:0.2;">
					<path d="M6.16,50.32v-18H5.58c-1.701,0-3.08-1.379-3.08-3.08s1.379-3.08,3.08-3.08c0,0,0,0,0.001,0h0.58v-7.65h1.69v-3.67H9.7
						v-1.16h6v1.16h1.85v3.67H18v-3.67h9.74v3.67h1.54v-1.28c0-1.32,1.07-2.39,2.39-2.39h26v11.29h0.69
						c1.701,0,3.08,1.379,3.08,3.08c0,1.701-1.379,3.08-3.08,3.08h-0.69v18L6.16,50.32z"/>
				</g>
				<g style="opacity:0.08;">
					<path d="M6.16,52.32V34.26c-2.242-0.223-3.879-2.221-3.657-4.463c0.192-1.934,1.722-3.464,3.657-3.657v-7.63h1.69v-3.67H9.7
						v-1.16h8v1.16h12v1.68c0.608-1.041,1.724-1.681,2.93-1.68h27v11.3c2.248,0.158,3.942,2.108,3.785,4.355
						c-0.142,2.028-1.756,3.642-3.785,3.785v18L6.16,52.32z"/>
				</g>
				<g style="opacity:0.1;">
					<path d="M7.16,51.32v-18H6.58c-1.701,0-3.08-1.379-3.08-3.08s1.379-3.08,3.08-3.08c0,0,0,0,0.001,0h0.58v-7.65h1.69v-3.67h1.85
						v-1.16h6v1.16h1.85v3.67H19v-3.67h9.74v3.67h1.54v-1.28c0-1.32,1.07-2.39,2.39-2.39h26v11.29h0.69
						c1.701,0,3.08,1.379,3.08,3.08c0,1.701-1.379,3.08-3.08,3.08h-0.69v18L7.16,51.32z"/>
				</g>
				<path d="M58.42,27.13h-1.69V15.84h-25c-0.768,0-1.39,0.622-1.39,1.39v2.28h-3.59v-3.67H19v3.67h-2.41v-3.67h-1.84v-1.16h-4v1.16
					h-1.9v3.67H7.16v7.62H5.58c-1.149,0-2.08,0.932-2.08,2.08c0,1.148,0.931,2.079,2.08,2.08h1.58v18h49.57v-18h1.69
					c1.149,0,2.08-0.932,2.08-2.08C60.499,28.061,59.568,27.13,58.42,27.13z M5.58,30.21c-0.552,0-1-0.448-1-1s0.448-1,1-1
					s1,0.448,1,1S6.132,30.21,5.58,30.21z M58.42,30.21c-0.552,0-1-0.448-1-1s0.448-1,1-1s1,0.448,1,1S58.972,30.21,58.42,30.21z"/>
				<path style="fill:#455A64;" d="M14.75,14.68v1.16h1.85v3.67H19v-3.67h7.74v3.67h3.54v-2.28c0-0.768,0.622-1.39,1.39-1.39h25
					v11.29h1.69c1.149,0,2.08,0.932,2.08,2.08c0,1.148-0.931,2.079-2.08,2.08h-1.63v18H7.16v-18H5.58c-1.149,0-2.08-0.932-2.08-2.08
					c0-1.148,0.931-2.079,2.08-2.08h1.58v-7.62h1.69v-3.67h1.85v-1.16h4 M58.42,30.21c0.552,0,1-0.448,1-1s-0.448-1-1-1
					s-1,0.448-1,1S57.868,30.21,58.42,30.21 M5.58,30.21c0.552,0,1-0.448,1-1s-0.448-1-1-1s-1,0.448-1,1S5.028,30.21,5.58,30.21
					 M15.25,14.21h-5v1.16h-1.9V19H6.66v7.62H5.58C4.155,26.62,3,27.775,3,29.2c0,1.425,1.155,2.579,2.58,2.58h1.08v18h50.57v-18
					h1.19c1.425,0,2.58-1.155,2.58-2.58c0-1.425-1.155-2.579-2.58-2.58h-1.19V15.34H31.68c-1.044,0-1.89,0.846-1.89,1.89V19h-2.54
					v-3.66h-8.74V19h-1.42v-3.66h-1.84v-1.16L15.25,14.21z M58.42,29.71c-0.282,0-0.51-0.228-0.51-0.51s0.228-0.51,0.51-0.51
					c0.282,0,0.51,0.228,0.51,0.51c0,0,0,0,0,0C58.93,29.482,58.702,29.71,58.42,29.71z M5.58,29.71c-0.282,0-0.51-0.228-0.51-0.51
					s0.228-0.51,0.51-0.51c0.282,0,0.51,0.228,0.51,0.51S5.862,29.71,5.58,29.71L5.58,29.71z"/>
				
					<linearGradient id="SVGID_1_" gradientUnits="userSpaceOnUse" x1="3.5003" y1="36.79" x2="9.2" y2="36.79" gradientTransform="matrix(1 0 0 -1 0 66)">
					<stop  offset="0" style="stop-color:#E0E0E0"/>
					<stop  offset="1" style="stop-color:#9E9E9E"/>
				</linearGradient>
				<path style="fill:url(#SVGID_1_);" d="M5.58,27.13c-1.149,0-2.08,0.932-2.08,2.08c0,1.148,0.931,2.079,2.08,2.08H9.2v-4.16H5.58
					z M5.58,30.22c-0.552,0-1-0.448-1-1s0.448-1,1-1s1,0.448,1,1c-0.005,0.548-0.452,0.99-1,0.99V30.22z"/>
				
					<linearGradient id="SVGID_2_" gradientUnits="userSpaceOnUse" x1="54.8" y1="36.79" x2="60.4996" y2="36.79" gradientTransform="matrix(1 0 0 -1 0 66)">
					<stop  offset="0" style="stop-color:#9E9E9E"/>
					<stop  offset="1" style="stop-color:#E0E0E0"/>
				</linearGradient>
				<path style="fill:url(#SVGID_2_);" d="M54.8,27.13v4.16h3.62c1.149,0,2.08-0.932,2.08-2.08c0-1.148-0.931-2.079-2.08-2.08H54.8z
					 M57.42,29.21c0-0.552,0.448-1,1-1s1,0.448,1,1s-0.448,1-1,1S57.42,29.762,57.42,29.21z"/>
				
					<radialGradient id="SVGID_3_" cx="2033.0535" cy="-166.9269" r="82.73" gradientTransform="matrix(0.23 0 0 -0.23 -437.95 -2.52)" gradientUnits="userSpaceOnUse">
					<stop  offset="0" style="stop-color:#000000"/>
					<stop  offset="1" style="stop-color:#212121"/>
				</radialGradient>
				<rect x="7.16" y="23.17" style="fill:url(#SVGID_3_);" width="49.57" height="23.04"/>
				
					<radialGradient id="SVGID_4_" cx="2033.0535" cy="-218.907" r="75.04" gradientTransform="matrix(0.23 0 0 -0.23 -437.95 -2.52)" gradientUnits="userSpaceOnUse">
					<stop  offset="0.36" style="stop-color:#E0E0E0"/>
					<stop  offset="0.53" style="stop-color:#DCDCDC"/>
					<stop  offset="0.68" style="stop-color:#D2D2D2"/>
					<stop  offset="0.82" style="stop-color:#BFBFBF"/>
					<stop  offset="0.96" style="stop-color:#A6A6A6"/>
					<stop  offset="1" style="stop-color:#9E9E9E"/>
				</radialGradient>
				<rect x="7.16" y="46.22" style="fill:url(#SVGID_4_);" width="49.57" height="1.24"/>
				<rect x="7.16" y="47.46" style="fill:#212121;" width="49.57" height="1.86"/>
				
					<radialGradient id="SVGID_5_" cx="637.01" cy="434.33" r="116.32" gradientTransform="matrix(1 0 0 -1 0 66)" gradientUnits="userSpaceOnUse">
					<stop  offset="0.36" style="stop-color:#E0E0E0"/>
					<stop  offset="0.53" style="stop-color:#DCDCDC"/>
					<stop  offset="0.68" style="stop-color:#D2D2D2"/>
					<stop  offset="0.82" style="stop-color:#BFBFBF"/>
					<stop  offset="0.96" style="stop-color:#A6A6A6"/>
					<stop  offset="1" style="stop-color:#9E9E9E"/>
				</radialGradient>
				<rect x="7.16" y="23.92" style="fill:url(#SVGID_5_);" width="49.57" height="1.86"/>
				
					<radialGradient id="SVGID_6_" cx="637.01" cy="457.19" r="134.12" gradientTransform="matrix(1 0 0 -1 0 66)" gradientUnits="userSpaceOnUse">
					<stop  offset="0.36" style="stop-color:#E0E0E0"/>
					<stop  offset="0.53" style="stop-color:#DCDCDC"/>
					<stop  offset="0.68" style="stop-color:#D2D2D2"/>
					<stop  offset="0.82" style="stop-color:#BFBFBF"/>
					<stop  offset="0.96" style="stop-color:#A6A6A6"/>
					<stop  offset="1" style="stop-color:#9E9E9E"/>
				</radialGradient>
				<path style="fill:url(#SVGID_6_);" d="M49.56,15.84H31.68c-0.768,0-1.39,0.622-1.39,1.39v2.28H7.16v3.67h49.57v-7.34H49.56z"/>
				
					<linearGradient id="SVGID_7_" gradientUnits="userSpaceOnUse" x1="22.88" y1="46.49" x2="22.88" y2="50.16" gradientTransform="matrix(1 0 0 -1 0 66)">
					<stop  offset="0" style="stop-color:#455A64"/>
					<stop  offset="1" style="stop-color:#607D8B"/>
				</linearGradient>
				<rect x="19.01" y="15.84" style="fill:url(#SVGID_7_);" width="7.74" height="3.67"/>
				
					<linearGradient id="SVGID_8_" gradientUnits="userSpaceOnUse" x1="50.64" y1="43.72" x2="50.64" y2="49.01" gradientTransform="matrix(1 0 0 -1 0 66)">
					<stop  offset="0" style="stop-color:#607D8B"/>
					<stop  offset="1" style="stop-color:#455A64"/>
				</linearGradient>
				<rect x="46.77" y="16.99" style="fill:url(#SVGID_8_);" width="7.74" height="5.28"/>
				<rect x="47.47" y="17.68" style="fill:#90A4AE;" width="6.35" height="3.9"/>
				<rect x="39.28" y="17.45" style="fill:#FFFFFF;" width="6.21" height="4.39"/>
				<rect x="39.51" y="17.67" style="fill:#4FC3F7;" width="5.75" height="3.92"/>
				<g>
					<g style="opacity:0.75;">
						<rect x="39.51" y="17.67" style="fill:#2487AA;" width="5.75" height="3.92"/>
					</g>
				</g>
				
					<linearGradient id="SVGID_9_" gradientUnits="userSpaceOnUse" x1="12.72" y1="46.49" x2="12.72" y2="50.16" gradientTransform="matrix(1 0 0 -1 0 66)">
					<stop  offset="0" style="stop-color:#90A4AE"/>
					<stop  offset="1" style="stop-color:#CFD8DC"/>
				</linearGradient>
				<rect x="8.85" y="15.84" style="fill:url(#SVGID_9_);" width="7.74" height="3.67"/>
				<rect x="10.7" y="14.68" style="fill:#F44336;" width="4.04" height="1.16"/>
				
					<linearGradient id="SVGID_10_" gradientUnits="userSpaceOnUse" x1="14.4188" y1="30.42" x2="22.68" y2="30.42" gradientTransform="matrix(1 0 0 -1 0 66)">
					<stop  offset="0" style="stop-color:#E0E0E0"/>
					<stop  offset="1" style="stop-color:#9E9E9E"/>
				</linearGradient>
				<path style="fill:url(#SVGID_10_);" d="M17.33,32.67c-1.607-0.001-2.911,1.302-2.911,2.909
					c-0.001,1.607,1.302,2.911,2.909,2.911c0.001,0,0.002,0,0.002,0h5.35v-5.82H17.33z M17.33,37.34c-0.972,0-1.76-0.788-1.76-1.76
					c0-0.972,0.788-1.76,1.76-1.76s1.76,0.788,1.76,1.76l0,0C19.09,36.552,18.302,37.34,17.33,37.34
					C17.33,37.34,17.33,37.34,17.33,37.34z"/>
				<circle style="fill:#7C7C7C;" cx="31.77" cy="35.61" r="11.85"/>
				<circle style="fill:#2B2B2B;" cx="31.77" cy="35.61" r="10.61"/>
				
					<linearGradient id="SVGID_11_" gradientUnits="userSpaceOnUse" x1="31.77" y1="22.52" x2="31.77" y2="38.26" gradientTransform="matrix(1 0 0 -1 0 66)">
					<stop  offset="0" style="stop-color:#9E9E9E"/>
					<stop  offset="1" style="stop-color:#E0E0E0"/>
				</linearGradient>
				<circle style="fill:url(#SVGID_11_);" cx="31.77" cy="35.61" r="7.87"/>
				<circle style="fill:#FFFFFF;" cx="31.77" cy="35.61" r="3.96"/>
				<circle style="fill:#7F7F7F;" cx="31.77" cy="35.61" r="3.61"/>
				<g>
					<defs>
						<circle id="SVGID_12_" cx="31.77" cy="35.61" r="10.61"/>
					</defs>
					<clipPath id="SVGID_13_">
						<use xlink:href="#SVGID_12_"  style="overflow:visible;"/>
					</clipPath>
					<g style="clip-path:url(#SVGID_13_);">
						<polygon style="opacity:0.23;fill:#EEE8D5;enable-background:new    ;" points="46.37,47.68 28.54,47.68 35.84,20.61 
							46.37,20.61 						"/>
					</g>
				</g>
				<circle style="fill:#F44336;" cx="33.39" cy="18.65" r="0.98"/>
			</g>
		</g>
	</g>
</g>
</svg>

<svg xmlns="http://www.w3.org/2000/svg" xmlns:xlink="http://www.w3.org/1999/xlink" viewBox="0 0 64 64"><defs><style>.cls-1{fill:none;}.cls-2,.cls-30{isolation:isolate;}.cls-3{opacity:0.2;}.cls-4{opacity:0.08;}.cls-5{opacity:0.1;}.cls-6{fill:#455a64;}.cls-7{fill:url(#未命名的渐变_42);}.cls-8{fill:url(#未命名的渐变_43);}.cls-9{fill:url(#未命名的渐变_17);}.cls-10{fill:url(#未命名的渐变_40);}.cls-11{fill:#212121;}.cls-12{fill:url(#未命名的渐变_40-2);}.cls-13{fill:url(#未命名的渐变_40-3);}.cls-14{fill:url(#未命名的渐变_24);}.cls-15{fill:url(#未命名的渐变_29);}.cls-16{fill:#90a4ae;}.cls-17{fill:#fff;}.cls-18{fill:#4fc3f7;}.cls-19{mask:url(#mask);}.cls-20{opacity:0.75;mix-blend-mode:multiply;}.cls-21{fill:#2487aa;}.cls-22{fill:url(#未命名的渐变_28);}.cls-23{fill:#f44336;}.cls-24{fill:url(#未命名的渐变_41);}.cls-25{fill:#7c7c7c;}.cls-26{fill:#2b2b2b;}.cls-27{fill:url(#未命名的渐变_33);}.cls-28{fill:#7f7f7f;}.cls-29{clip-path:url(#clip-path);}.cls-30{fill:#eee8d5;opacity:0.23;}.cls-31{filter:url(#luminosity-invert);}</style><linearGradient id="未命名的渐变_42" x1="3.5" y1="29.21" x2="9.2" y2="29.21" gradientUnits="userSpaceOnUse"><stop offset="0" stop-color="#e0e0e0"/><stop offset="1" stop-color="#9e9e9e"/></linearGradient><linearGradient id="未命名的渐变_43" x1="54.8" y1="29.21" x2="60.5" y2="29.21" gradientUnits="userSpaceOnUse"><stop offset="0" stop-color="#9e9e9e"/><stop offset="1" stop-color="#e0e0e0"/></linearGradient><radialGradient id="未命名的渐变_17" cx="637.01" cy="-326.16" r="82.73" gradientTransform="translate(-116.86 110.89) scale(0.23)" gradientUnits="userSpaceOnUse"><stop offset="0"/><stop offset="1" stop-color="#212121"/></radialGradient><radialGradient id="未命名的渐变_40" cx="637.01" cy="-274.18" r="75.04" gradientTransform="translate(-116.86 110.89) scale(0.23)" gradientUnits="userSpaceOnUse"><stop offset="0.36" stop-color="#e0e0e0"/><stop offset="0.53" stop-color="#dcdcdc"/><stop offset="0.68" stop-color="#d2d2d2"/><stop offset="0.82" stop-color="#bfbfbf"/><stop offset="0.96" stop-color="#a6a6a6"/><stop offset="1" stop-color="#9e9e9e"/></radialGradient><radialGradient id="未命名的渐变_40-2" cx="637.01" cy="-368.33" r="116.32" xlink:href="#未命名的渐变_40"/><radialGradient id="未命名的渐变_40-3" cx="637.01" cy="-391.19" r="134.12" xlink:href="#未命名的渐变_40"/><linearGradient id="未命名的渐变_24" x1="22.88" y1="19.51" x2="22.88" y2="15.84" gradientUnits="userSpaceOnUse"><stop offset="0" stop-color="#455a64"/><stop offset="1" stop-color="#607d8b"/></linearGradient><linearGradient id="未命名的渐变_29" x1="50.64" y1="22.28" x2="50.64" y2="16.99" gradientUnits="userSpaceOnUse"><stop offset="0" stop-color="#607d8b"/><stop offset="1" stop-color="#455a64"/></linearGradient><filter id="luminosity-invert" filterUnits="userSpaceOnUse" color-interpolation-filters="sRGB"><feColorMatrix values="-1 0 0 0 1 0 -1 0 0 1 0 0 -1 0 1 0 0 0 1 0"/></filter><mask id="mask" x="37" y="15" width="11" height="9" maskUnits="userSpaceOnUse"><g class="cls-31"><image width="11" height="9" transform="translate(37 15)" xlink:href="data:image/png;base64,iVBORw0KGgoAAAANSUhEUgAAAAsAAAAJCAIAAABrBkF6AAAACXBIWXMAAAsSAAALEgHS3X78AAAAK0lEQVQYV2NgoBpgBAMmGIBw0VUwMzOzwACQjUUFUIIVBoBssswg4A6KAACZmQEANNLrLgAAAABJRU5ErkJggg=="/></g></mask><linearGradient id="未命名的渐变_28" x1="12.72" y1="19.51" x2="12.72" y2="15.84" gradientUnits="userSpaceOnUse"><stop offset="0" stop-color="#90a4ae"/><stop offset="1" stop-color="#cfd8dc"/></linearGradient><linearGradient id="未命名的渐变_41" x1="14.42" y1="35.58" x2="22.68" y2="35.58" xlink:href="#未命名的渐变_42"/><linearGradient id="未命名的渐变_33" x1="31.77" y1="43.48" x2="31.77" y2="27.73" xlink:href="#未命名的渐变_43"/><clipPath id="clip-path"><circle class="cls-1" cx="31.77" cy="35.61" r="10.61"/></clipPath></defs><title>画板 21</title><g class="cls-2"><g id="开始菜单应用图标"><g id="照相机"><g id="_64" data-name="64"><g class="cls-3"><path d="M6.16,50.32v-18H5.58a3.08,3.08,0,1,1,0-6.16h.58V18.51H7.85V14.84H9.7V13.68h6v1.16h1.85v3.67H18V14.84h9.74v3.67h1.54V17.23a2.39,2.39,0,0,1,2.39-2.39h26V26.13h.69a3.08,3.08,0,1,1,0,6.16h-.69v18Z"/></g><g class="cls-4"><path d="M6.16,52.32V34.26a4.08,4.08,0,0,1,0-8.12V18.51H7.85V14.84H9.7V13.68h8v1.16h12v1.68a3.39,3.39,0,0,1,2.93-1.68h27v11.3a4.08,4.08,0,0,1,0,8.14v18Z"/></g><g class="cls-5"><path d="M7.16,51.32v-18H6.58a3.08,3.08,0,1,1,0-6.16h.58V19.51H8.85V15.84H10.7V14.68h6v1.16h1.85v3.67H19V15.84h9.74v3.67h1.54V18.23a2.39,2.39,0,0,1,2.39-2.39h26V27.13h.69a3.08,3.08,0,1,1,0,6.16h-.69v18Z"/></g><path d="M58.42,27.13H56.73V15.84h-25a1.39,1.39,0,0,0-1.39,1.39v2.28H26.75V15.84H19v3.67H16.59V15.84H14.75V14.68h-4v1.16H8.85v3.67H7.16v7.62H5.58a2.08,2.08,0,0,0,0,4.16H7.16v18H56.73v-18h1.69a2.08,2.08,0,0,0,0-4.16ZM5.58,30.21a1,1,0,1,1,1-1A1,1,0,0,1,5.58,30.21Zm52.84,0a1,1,0,1,1,1-1A1,1,0,0,1,58.42,30.21Z"/><path class="cls-6" d="M14.75,14.68v1.16h1.85v3.67H19V15.84h7.74v3.67h3.54V17.23a1.39,1.39,0,0,1,1.39-1.39h25V27.13h1.69a2.08,2.08,0,0,1,0,4.16H56.73v18H7.16v-18H5.58a2.08,2.08,0,0,1,0-4.16H7.16V19.51H8.85V15.84H10.7V14.68h4M58.42,30.21a1,1,0,1,0-1-1,1,1,0,0,0,1,1m-52.84,0a1,1,0,1,0-1-1,1,1,0,0,0,1,1m9.67-16h-5v1.16H8.35V19H6.66v7.62H5.58a2.58,2.58,0,0,0,0,5.16H6.66v18H57.23v-18h1.19a2.58,2.58,0,0,0,0-5.16H57.23V15.34H31.68a1.89,1.89,0,0,0-1.89,1.89V19H27.25V15.34H18.51V19H17.09V15.34H15.25V14.18ZM58.42,29.71a.51.51,0,1,1,.51-.51.51.51,0,0,1-.51.51Zm-52.84,0a.51.51,0,1,1,.51-.51.51.51,0,0,1-.51.51Z"/><path class="cls-7" d="M5.58,27.13a2.08,2.08,0,0,0,0,4.16H9.2V27.13Zm0,3.09a1,1,0,1,1,1-1A1,1,0,0,1,5.58,30.21Z"/><path class="cls-8" d="M54.8,27.13v4.16h3.62a2.08,2.08,0,0,0,0-4.16Zm2.62,2.08a1,1,0,1,1,1,1A1,1,0,0,1,57.42,29.21Z"/><rect class="cls-9" x="7.16" y="23.17" width="49.57" height="23.04"/><rect class="cls-10" x="7.16" y="46.22" width="49.57" height="1.24"/><rect class="cls-11" x="7.16" y="47.46" width="49.57" height="1.86"/><rect class="cls-12" x="7.16" y="23.92" width="49.57" height="1.86"/><path class="cls-13" d="M49.56,15.84H31.68a1.39,1.39,0,0,0-1.39,1.39v2.28H7.16v3.67H56.73V15.84Z"/><rect class="cls-14" x="19.01" y="15.84" width="7.74" height="3.67"/><rect class="cls-15" x="46.77" y="16.99" width="7.74" height="5.28"/><rect class="cls-16" x="48.69" y="16.46" width="3.9" height="6.35" transform="translate(70.28 -31.01) rotate(90)"/><rect class="cls-17" x="40.19" y="16.53" width="4.39" height="6.21" transform="translate(62.02 -22.74) rotate(90)"/><rect class="cls-18" x="39.51" y="17.67" width="5.75" height="3.92"/><g class="cls-19"><g class="cls-20"><rect class="cls-21" x="39.51" y="17.67" width="5.75" height="3.92"/></g></g><rect class="cls-22" x="8.85" y="15.84" width="7.74" height="3.67"/><rect class="cls-23" x="10.7" y="14.68" width="4.04" height="1.16"/><path class="cls-24" d="M17.33,32.67a2.91,2.91,0,1,0,0,5.82h5.35V32.67Zm0,4.67a1.76,1.76,0,1,1,1.76-1.76A1.76,1.76,0,0,1,17.33,37.34Z"/><circle class="cls-25" cx="31.77" cy="35.61" r="11.85"/><circle class="cls-26" cx="31.77" cy="35.61" r="10.61"/><circle class="cls-27" cx="31.77" cy="35.61" r="7.87"/><circle class="cls-17" cx="31.77" cy="35.61" r="3.96"/><circle class="cls-28" cx="31.77" cy="35.61" r="3.61"/><g class="cls-29"><polygon class="cls-30" points="46.37 47.68 28.54 47.68 35.84 20.61 46.37 20.61 46.37 47.68"/></g><circle class="cls-23" cx="33.39" cy="18.65" r="0.98"/></g></g></g></g></svg>
